X:1
T: Bow Brig
C:William Macpherson
R:Reel
Q: 232
K:D
M:4/4
L:1/8
A2|:d4 A3G|FD FA d2A2|B2ef gf ed|c2A2 A2Ac|
d4 A3G|FD FA d2AF|GF ED CB, A,G,|F2D2 D2A2:|
|:f4 dc de|f2a2 d3c|BG dB GF ED|C2A,2 A,2 ((3ABc) |
d4 A3G|FD FA d2f2|gf ed cb ag|f2d2 d2A2:|
|:"Variation"Ad AF Ad AF|AF dA f2 dA|BG Bd BG Bd|cA ce ba ge|
Ad AF Ad AF|AF dA f2 af|ba gf ed cB|A2 d2 D2 A2:|
|:A2 dA A2 dA|dA fd a2 f2|e2 bg f2 df|e2 a2 A2 ((3ABc) |
d2 AA d2 AA|dA de f2 a2|ba gf ed cB|A2 d2 D2 A2:|
